icons/1_Primary/Cloudflare.svg

<svg width="1024" height="1024" fill="none" xmlns="http://www.w3.org/2000/svg"><g clip-path="url(#a)"><path d="M512 1024c282.77 0 512-229.23 512-512S794.77 0 512 0 0 229.23 0 512s229.23 512 512 512Z" fill="#F8C18C"/><path d="M620 602.07c3.53-12.14 2.18-23.26-3.72-31.51-5.38-7.58-14.48-12-25.43-12.47l-207.44-2.69a3.745 3.745 0 0 1-3.19-1.71 4.653 4.653 0 0 1-.5-3.72 5.75 5.75 0 0 1 4.88-3.74l209.3-2.69c24.8-1.17 51.75-21.25 61.18-45.85l12-31.18a6.488 6.488 0 0 0 .35-4 136.282 136.282 0 0 0-209.343-83.013 136.287 136.287 0 0 0-52.657 69.013 61.28 61.28 0 0 0-97.75 42.8 64.282 64.282 0 0 0 1.52 21.42 87.061 87.061 0 0 0-84.6 87.13c.03 4.223.311 8.44.84 12.63a4.176 4.176 0 0 0 4 3.53h382.84a5.215 5.215 0 0 0 4.87-3.72l2.85-10.23Zm66-133.29a40.653 40.653 0 0 0-5.71.27 3.413 3.413 0 0 0-3 2.34l-8.09 28.14c-3.53 12.14-2.2 23.26 3.7 31.54 5.4 7.58 14.51 11.93 25.46 12.45l44.17 2.71a3.708 3.708 0 0 1 3.18 1.68 4.863 4.863 0 0 1 .51 3.74 5.734 5.734 0 0 1-4.89 3.72l-46 2.69c-24.94 1.17-51.71 21.24-61.16 45.86l-3.37 8.59a2.445 2.445 0 0 0 1.167 3.141 2.44 2.44 0 0 0 1.193.249h158.08a4.16 4.16 0 0 0 4-3 115.523 115.523 0 0 0 4.21-30.67C799.5 519.86 748.59 469 686.07 469" fill="#fff"/></g><defs><clipPath id="a"><path fill="#fff" d="M0 0h1024v1024H0z"/></clipPath></defs></svg>

<svg width="1024" height="1024" viewBox="0 0 1024 1024" fill="none" xmlns="http://www.w3.org/2000/svg">
<g clip-path="url(#clip0_2_1815)">
<path d="M512 1024C794.77 1024 1024 794.77 1024 512C1024 229.23 794.77 0 512 0C229.23 0 0 229.23 0 512C0 794.77 229.23 1024 512 1024Z" fill="#F8C18C"/>
<path d="M620 602.07C623.53 589.93 622.18 578.81 616.28 570.56C610.9 562.98 601.8 558.56 590.85 558.09L383.41 555.4C382.777 555.408 382.152 555.256 381.594 554.957C381.036 554.658 380.564 554.222 380.22 553.69C379.883 553.139 379.664 552.523 379.578 551.883C379.492 551.242 379.54 550.591 379.72 549.97C380.096 548.949 380.754 548.055 381.618 547.393C382.482 546.731 383.516 546.328 384.6 546.23L593.9 543.54C618.7 542.37 645.65 522.29 655.08 497.69L667.08 466.51C667.617 465.247 667.739 463.847 667.43 462.51C660.921 433.522 645.118 407.456 622.427 388.279C599.736 369.102 571.399 357.865 541.732 356.28C512.065 354.695 482.693 362.848 458.087 379.497C433.482 396.147 414.991 420.381 405.43 448.51C396.749 441.994 386.493 437.901 375.711 436.65C364.929 435.398 354.009 437.033 344.066 441.386C334.123 445.74 325.515 452.656 319.122 461.428C312.729 470.199 308.78 480.512 307.68 491.31C306.982 498.485 307.496 505.726 309.2 512.73C286.527 513.371 265 522.835 249.199 539.108C233.399 555.381 224.573 577.178 224.6 599.86C224.63 604.083 224.911 608.3 225.44 612.49C225.591 613.452 226.073 614.332 226.804 614.976C227.534 615.621 228.466 615.99 229.44 616.02H612.28C613.38 615.993 614.444 615.618 615.318 614.95C616.193 614.282 616.834 613.354 617.15 612.3L620 602.07ZM686 468.78C684.093 468.736 682.185 468.826 680.29 469.05C679.614 469.098 678.968 469.346 678.433 469.763C677.899 470.18 677.501 470.746 677.29 471.39L669.2 499.53C665.67 511.67 667 522.79 672.9 531.07C678.3 538.65 687.41 543 698.36 543.52L742.53 546.23C743.159 546.217 743.781 546.364 744.338 546.658C744.894 546.952 745.367 547.383 745.71 547.91C746.04 548.468 746.255 549.086 746.342 549.729C746.43 550.371 746.388 551.024 746.22 551.65C745.842 552.67 745.182 553.562 744.316 554.221C743.45 554.88 742.414 555.278 741.33 555.37L695.33 558.06C670.39 559.23 643.62 579.3 634.17 603.92L630.8 612.51C630.639 612.89 630.577 613.304 630.619 613.715C630.662 614.125 630.808 614.518 631.044 614.857C631.28 615.195 631.597 615.469 631.967 615.651C632.338 615.834 632.748 615.919 633.16 615.9H791.24C792.142 615.901 793.02 615.609 793.741 615.068C794.463 614.527 794.989 613.766 795.24 612.9C798.013 602.912 799.429 592.596 799.45 582.23C799.5 519.86 748.59 469 686.07 469" fill="white"/>
</g>
<defs>
<clipPath id="clip0_2_1815">
<rect width="1024" height="1024" fill="white"/>
</clipPath>
</defs>
</svg>
